Sedona/img/main/sec1_welcome01.svg

<svg width="189" height="46" viewBox="0 0 189 46" fill="none" xmlns="http://www.w3.org/2000/svg">
<path fill-rule="evenodd" clip-rule="evenodd" d="M60.824 37.364V45.1H40.008V0.352997H60.824V8.023H47.624V18.827H58.159V26.497H47.624V37.363L60.824 37.364ZM82.17 45.1V37.364L71.573 37.363V0.352997H63.957V45.1H82.17ZM188.7 45.1V37.364H175.499V26.497H186.034V18.827H175.499V8.024H188.7V0.352997H167.884V45.1H188.7ZM163.459 0.353997H155.908L149.115 21.959L142.324 0.353997H134.772V45.101H142.389V23.111L145.371 34.489H152.796L155.843 23.111V45.101H163.459V0.353997ZM123.999 8.024H118.476V37.364H124L123.999 8.024ZM131.679 5.085C131.679 2.463 129.521 0.353997 126.981 0.353997L115.557 0.354997C112.957 0.354997 110.861 2.464 110.861 5.085V40.37C110.861 42.927 112.957 45.1 115.557 45.1H126.981C129.521 45.1 131.679 42.927 131.679 40.37V5.085ZM98.971 28.606L106.649 26.816V40.368C106.649 42.925 104.492 45.098 101.953 45.098H90.528C87.928 45.098 85.833 42.925 85.833 40.368V5.084C85.833 2.462 87.928 0.353997 90.528 0.353997H101.951C104.491 0.353997 106.648 2.462 106.648 5.084V14.161L98.97 15.951V8.023H93.448V37.363H98.97L98.971 28.606ZM36.241 0.353997H28.564L27.994 37.364H27.232L22.344 0.353997H14.792L10.032 37.364H9.20803L8.57303 0.353997H0.957031L2.09903 45.1H16.632L18.599 26.626L20.567 45.1H35.037L36.241 0.353997Z" fill="#81B3D3"/>
</svg>

<svg width="189" height="46" fill="none" xmlns="http://www.w3.org/2000/svg">
  <path fill-rule="evenodd" clip-rule="evenodd" d="M60.82 37.36v7.74H40.01V.35h20.81v7.67h-13.2v10.8h10.54v7.68H47.62v10.86h13.2Zm21.35 7.74v-7.74h-10.6v-37h-7.61V45.1h18.21Zm106.53 0v-7.74h-13.2V26.5h10.53v-7.67H175.5V8.03h13.2V.34h-20.82V45.1h20.82ZM163.46.35h-7.55l-6.8 21.6-6.79-21.6h-7.55V45.1h7.62V23.11l2.98 11.38h7.43l3.04-11.38v22h7.62V.34ZM124 8.02h-5.52v29.34H124V8.02Zm7.68-2.93a4.74 4.74 0 0 0-4.7-4.74h-11.42a4.7 4.7 0 0 0-4.7 4.74v35.28c0 2.56 2.1 4.73 4.7 4.73h11.42c2.54 0 4.7-2.17 4.7-4.73V5.09ZM98.98 28.6l7.67-1.8v13.56a4.79 4.79 0 0 1-4.7 4.73H90.53c-2.6 0-4.7-2.18-4.7-4.73V5.08a4.7 4.7 0 0 1 4.7-4.73h11.42c2.54 0 4.7 2.11 4.7 4.73v9.08l-7.68 1.8V8.01h-5.52v29.34h5.52v-8.75ZM36.23.35h-7.68L28 37.36h-.76l-4.89-37H14.8l-4.76 37h-.82l-.64-37H.96L2.1 45.1h14.53l1.97-18.47 1.97 18.47h14.47L36.24.35Z" fill="#81B3D3"/>
</svg>
